icons/svg/camera.svg

<svg width="24" height="24" viewBox="0 0 24 24" fill="none" xmlns="http://www.w3.org/2000/svg">
<path d="M12.8569 3.18896H11.1431C10.4617 3.18896 10.121 3.18896 9.81177 3.28288C9.538 3.36602 9.2833 3.50233 9.06225 3.68401C8.81257 3.88923 8.62358 4.17271 8.24562 4.73966L7.10294 6.45367C5.57927 6.45367 4.81743 6.45367 4.23547 6.7502C3.72356 7.01103 3.30736 7.42723 3.04653 7.93914C2.75 8.5211 2.75 9.28294 2.75 10.8066V16.4582C2.75 17.9819 2.75 18.7437 3.04653 19.3257C3.30736 19.8376 3.72356 20.2538 4.23547 20.5146C4.81743 20.8112 5.57927 20.8112 7.10294 20.8112H16.8971C18.4207 20.8112 19.1826 20.8112 19.7645 20.5146C20.2764 20.2538 20.6926 19.8376 20.9535 19.3257C21.25 18.7437 21.25 17.9819 21.25 16.4582V10.8066C21.25 9.28294 21.25 8.5211 20.9535 7.93914C20.6926 7.42723 20.2764 7.01103 19.7645 6.7502C19.1826 6.45367 18.4207 6.45367 16.8971 6.45367L15.7544 4.73966C15.3764 4.17271 15.1874 3.88923 14.9377 3.68401C14.7167 3.50233 14.462 3.36602 14.1882 3.28288C13.879 3.18896 13.5383 3.18896 12.8569 3.18896Z" stroke="currentColor" stroke-width="1.5" stroke-linecap="round" stroke-linejoin="round"/>
<path d="M15.7748 13.2123C15.7748 15.2971 14.0848 16.9871 12 16.9871C9.91522 16.9871 8.22517 15.2971 8.22517 13.2123C8.22517 11.1275 9.91522 9.4375 12 9.4375C14.0848 9.4375 15.7748 11.1275 15.7748 13.2123Z" stroke="currentColor" stroke-width="1.5" stroke-linecap="round" stroke-linejoin="round"/>
</svg>

<svg xmlns="http://www.w3.org/2000/svg" width="24" height="24" fill="none" viewBox="0 0 24 24"><path stroke="currentColor" stroke-linecap="round" stroke-linejoin="round" stroke-width="1.5" d="M12.857 3.189h-1.714c-.681 0-1.022 0-1.331.094-.274.083-.529.22-.75.401-.25.205-.438.489-.816 1.056L7.103 6.454c-1.524 0-2.286 0-2.868.296a2.72 2.72 0 0 0-1.188 1.19c-.297.581-.297 1.343-.297 2.867v5.651c0 1.524 0 2.286.297 2.868.26.512.677.928 1.188 1.189.582.296 1.344.296 2.868.296h9.794c1.524 0 2.286 0 2.868-.296a2.72 2.72 0 0 0 1.188-1.19c.297-.581.297-1.343.297-2.867v-5.651c0-1.524 0-2.286-.297-2.868a2.72 2.72 0 0 0-1.188-1.189c-.582-.296-1.344-.296-2.868-.296L15.754 4.74c-.378-.567-.567-.85-.816-1.056a2.2 2.2 0 0 0-.75-.401c-.309-.094-.65-.094-1.331-.094"/><path stroke="currentColor" stroke-linecap="round" stroke-linejoin="round" stroke-width="1.5" d="M15.775 13.212a3.775 3.775 0 1 1-7.55 0 3.775 3.775 0 0 1 7.55 0"/></svg>
